svgs/light/fan-table.svg

<svg xmlns="http://www.w3.org/2000/svg" viewBox="0 0 448 512"><!-- Font Awesome Pro 6.0.0-alpha2 by @fontawesome - https://fontawesome.com License - https://fontawesome.com/license (Commercial License) --><path d="M448 224C448 100.25 347.75 0 224 0S0 100.25 0 224C0 342.25 91.75 439 208 447.25V480H80C71.164 480 64 487.162 64 496C64 504.836 71.164 512 80 512H368C376.836 512 384 504.836 384 496C384 487.162 376.836 480 368 480H240V447.25C356.25 439 448 342.25 448 224ZM224 413.5C119.5 413.5 34.5 328.5 34.5 224S119.5 34.5 224 34.5S413.5 119.5 413.5 224S328.5 413.5 224 413.5ZM224 209.375C216 209.375 209.375 216 209.375 224S216 238.625 224 238.625S238.625 232 238.625 224S232 209.375 224 209.375ZM383.25 243.375C383.25 209.375 366.375 177.75 338.25 158.875C310 139.875 274.25 136.25 242.875 149.125L222 93.25C214 71.875 187.875 60.5 166 73.125C117.375 101.25 100.625 163.5 128.75 212.125C135.375 223.5 144.125 233.625 154.75 241.625L116.625 287.875C109.25 296.75 106.25 308.375 108.375 319.625C110.375 330.875 117.375 340.75 127.25 346.5C142.625 355.375 160.125 360 177.875 360C206.75 360 244.5 346.625 266.25 309.125C272.75 297.75 277 285.125 278.625 272C291 274 310.25 277.25 337.75 281.875C358.875 285.375 383.25 270 383.25 243.375ZM343.5 250.25C342 250.25 266.75 237.375 264.625 237.375C264.5 237.375 264.5 237.375 264.375 237.375C254.375 237.375 247 246 247.375 255.875C248 268.875 244.875 281.875 238.375 293.125C218.875 326.875 184.375 328 178.625 328C166.125 328.125 153.875 324.875 143.125 318.625C139.773 316.709 138.187 311.744 141.25 308.125L190.25 248.625C198 239.125 193 227 184.375 222.625C172.75 216.625 163 207.375 156.375 196.125C137.125 162.75 148.625 120.125 181.875 100.75C184.441 99.381 189.975 99.098 192 104.5L219 176.5C220.875 181.25 224.75 185 229.625 186.5C234.625 188 239.875 187.25 244.25 184.5C265.625 170.875 292.875 170 315.125 182.25S351.25 217.875 351.25 243.375C351.25 247 348.625 250.25 343.5 250.25Z"/></svg>

<svg xmlns="http://www.w3.org/2000/svg" viewBox="0 0 448 512"><!--! Font Awesome Pro 6.3.0 by @fontawesome - https://fontawesome.com License - https://fontawesome.com/license (Commercial License) Copyright 2023 Fonticons, Inc. --><path d="M448 224c0-123.8-100.3-224-224-224S0 100.3 0 224c0 118.3 91.75 215 208 223.3V480h-128C71.16 480 64 487.2 64 496C64 504.8 71.33 512 80.17 512h287.7C376.7 512 384 504.8 384 496c0-8.838-7.164-16-16-16h-128v-32.75C356.3 439 448 342.3 448 224zM224 413.5c-104.5 0-189.5-85-189.5-189.5S119.5 34.5 224 34.5S413.5 119.5 413.5 224S328.5 413.5 224 413.5zM224 209.4C216 209.4 209.4 216 209.4 224S216 238.6 224 238.6S238.6 232 238.6 224S232 209.4 224 209.4zM383.3 243.4c0-34-16.88-65.63-45-84.5c-28.25-19-64-22.62-95.38-9.75L221.1 93.25c-8-21.38-34.12-32.75-56-20.12c-48.62 28.12-65.37 90.38-37.25 139c6.625 11.38 15.38 21.5 26 29.5L116.6 287.9c-7.375 8.875-10.38 20.5-8.25 31.75c2 11.25 9 21.12 18.88 26.88C142.6 355.4 160.1 360 177.9 360c28.88 0 66.63-13.38 88.38-50.88c6.5-11.38 10.75-24 12.38-37.13c12.38 2 31.62 5.25 59.13 9.875C358.9 285.4 383.3 270 383.3 243.4zM343.5 250.3c-1.5 0-76.88-12.88-79-12.88c-.125 0 .125 0 0 0c-10 0-17.5 8.625-17.12 18.5c.625 13-2.5 26-9 37.25C218.9 326.9 184.4 328 178.6 328c-12.5 .125-24.75-3.125-35.5-9.375c-3.352-1.916-4.938-6.881-1.875-10.5l49-59.5c7.75-9.5 2.75-21.62-5.875-26c-11.62-6-21.38-15.25-28-26.5c-19.25-33.38-7.75-76 25.5-95.38C184.4 99.38 189.1 99.1 192 104.5l27 72c1.875 4.75 5.75 8.5 10.62 10c5 1.5 10.25 .75 14.62-2c21.38-13.62 48.63-14.5 70.88-2.25s36.13 35.63 36.13 61.13C351.3 247 348.6 250.3 343.5 250.3z"/></svg>
